X: 42108
T: War Hent Trabrin
R: polka
M: 2/4
K: Aminor
AG|:EA- Ac-|c/B/A/G/ ED|EA- AB|cA BG|
EA- Ac-|c/B/A/G/ ED|EA- AG|AB c/B/A/G/|
A2- Ac-|c/B/A/G/ ED|EA- Ae|d2 BG|
EA- Ac-|c/B/A/G/ ED|EA- AA/G/|A2- AB/c/||
|:d2 eB|c2 B/A/G|EA- A2|c/B/A/G/ A/B/c/e/|
d2 eB|c2 B/A/G|EA- AA/G/|1 A2- AB/c/:|2 A2- AA/G/||

